client/svg/exclamation.svg

<svg xmlns="http://www.w3.org/2000/svg" width="448" height="448" viewBox="-136 0 448 448"><path d="M128 312v56q0 6.5-4.75 11.25t-11.25 4.75h-64q-6.5 0-11.25-4.75t-4.75-11.25v-56q0-6.5 4.75-11.25t11.25-4.75h64q6.5 0 11.25 4.75t4.75 11.25zm7.5-264l-7 192q-.25 6.5-5.125 11.25t-11.375 4.75h-64q-6.5 0-11.375-4.75t-5.125-11.25l-7-192q-.25-6.5 4.375-11.25t11.125-4.75h80q6.5 0 11.125 4.75t4.375 11.25z"/></svg>

<svg xmlns="http://www.w3.org/2000/svg" width="448" height="448" viewBox="-136 0 448 448"><path d="M128 312v56q0 6.5-4.75 11.25T112 384H48q-6.5 0-11.25-4.75T32 368v-56q0-6.5 4.75-11.25T48 296h64q6.5 0 11.25 4.75T128 312zm7.5-264l-7 192q-.25 6.5-5.125 11.25T112 256H48q-6.5 0-11.375-4.75T31.5 240l-7-192q-.25-6.5 4.375-11.25T40 32h80q6.5 0 11.125 4.75T135.5 48z"/></svg>
